Adwaita++/apps/scalable/parole.svg

<svg enable-background="new" height="128" viewBox="0 0 128 128" width="128" xmlns="http://www.w3.org/2000/svg" xmlns:xlink="http://www.w3.org/1999/xlink">
  <linearGradient id="linearGradient3157" gradientTransform="matrix(3.0540538 0 0 2.9459464 -300.90031 135.20346)" gradientUnits="userSpaceOnUse" x1="24" x2="24" y1="5" y2="43">
    <stop offset="0" stop-color="#fff"/>
    <stop offset=".063" stop-color="#fff" stop-opacity=".235294"/>
    <stop offset=".951" stop-color="#fff" stop-opacity=".156863"/>
    <stop offset="1" stop-color="#fff" stop-opacity=".392157"/>
  </linearGradient>
  <g enable-background="new" transform="translate(162.99495 -137.37942)">
    <rect fill="#3d3846" height="88" rx="8" ry="8.8" width="112" x="-155" y="165.38"/>
    <rect fill="none" height="109" opacity=".3" rx="5" ry="5.129" stroke="url(#linearGradient3157)" stroke-linecap="round" stroke-linejoin="round" width="113" x="-284.1" y="151.41"/>
    <g fill="#fff" transform="matrix(.89869844355 0 0 .77864288811 -121.92416619846 177.65203879308)">
      <path d="m25.513804-.44535904c-11.681016 0-21.163418 10.94193504-21.163418 24.42400504 0 13.482061 9.482402 24.424007 21.163418 24.424007 11.681024 0 21.163418-10.941946 21.163418-24.424007 0-13.48207-9.482394-24.42400504-21.163418-24.42400504zm0 1.2817776c11.079666 0 20.048525 10.35424244 20.048525 23.14222744 0 12.787986-8.968859 23.142229-20.048525 23.142229-11.079661 0-20.0485246-10.354243-20.0485246-23.142229 0-12.787985 8.9688636-23.14222744 20.0485246-23.14222744zm-7.404371 13.63048544-.01304 19.025992 16.484344-9.501708z" fill="#181414" opacity=".5"/>
      <path d="m25.513804.19678321c-11.681016 0-21.163418 10.94193479-21.163418 24.42400479 0 13.482061 9.482402 24.424007 21.163418 24.424007 11.681024 0 21.163418-10.941946 21.163418-24.424007 0-13.48207-9.482394-24.42400479-21.163418-24.42400479zm0 1.28177759c11.079666 0 20.048525 10.3542422 20.048525 23.1422272 0 12.787986-8.968859 23.142229-20.048525 23.142229-11.079661 0-20.0485246-10.354243-20.0485246-23.142229 0-12.787985 8.9688636-23.1422272 20.0485246-23.1422272zm-7.404371 13.6304852-.01304 19.025992 16.484344-9.501708z" fill="#fff"/>
    </g>
    <path d="m8 93.119141v14.080079c0 1.2188.2232031 2.37811.6269531 3.43164.40375 1.05352.9879375 2.00157 1.7109379 2.79687.723.7953 1.585218 1.43869 2.542968 1.88282.95775.44412 2.011141.68945 3.119141.68945h96c1.108 0 2.16139-.24533 3.11914-.68945.95775-.44413 1.81997-1.08752 2.54297-1.88282s1.30719-1.74335 1.71094-2.79687c.40375-1.05353.62695-2.21284.62695-3.43164v-14.080079z" fill="#efefef" transform="translate(-162.99495 137.37942)"/>
    <path d="m-154.99495 243.37942v2c0 4.432 3.568 8 8 8h96c4.432 0 8-3.568 8-8v-2c0 4.432-3.568 8-8 8h-96c-4.432 0-8-3.568-8-8z" opacity=".2"/>
    <rect fill="#e01b24" height="6.207" rx="1.5" width="90" x="-145.000003" y="236.84"/>
    <path d="m-109.430003 236.84h54.439v6.207h-54.439z" fill="#979797"/>
    <g fill="#3d3846">
      <path d="m-80.710003 236.84h25.718v6.207h-25.718z"/>
      <rect height="6.207" rx="1.5" width="25.718" x="-78.710003" y="236.84"/>
    </g>
  </g>
</svg>

<?xml version="1.0" encoding="UTF-8" standalone="no"?>
<svg
   xmlns:dc="http://purl.org/dc/elements/1.1/"
   xmlns:cc="http://creativecommons.org/ns#"
   xmlns:rdf="http://www.w3.org/1999/02/22-rdf-syntax-ns#"
   xmlns:svg="http://www.w3.org/2000/svg"
   xmlns="http://www.w3.org/2000/svg"
   xmlns:xlink="http://www.w3.org/1999/xlink"
   xmlns:sodipodi="http://sodipodi.sourceforge.net/DTD/sodipodi-0.dtd"
   xmlns:inkscape="http://www.inkscape.org/namespaces/inkscape"
   style="enable-background:new"
   width="128"
   height="128"
   version="1.0"
   viewBox="0 0 128 128"
   id="svg74"
   sodipodi:docname="parole.svg"
   inkscape:version="0.92.3 (2405546, 2018-03-11)">
  <metadata
     id="metadata78">
    <rdf:RDF>
      <cc:Work
         rdf:about="">
        <dc:format>image/svg+xml</dc:format>
        <dc:type
           rdf:resource="http://purl.org/dc/dcmitype/StillImage" />
      </cc:Work>
    </rdf:RDF>
  </metadata>
  <sodipodi:namedview
     pagecolor="#ffffff"
     bordercolor="#666666"
     borderopacity="1"
     objecttolerance="10"
     gridtolerance="10"
     guidetolerance="10"
     inkscape:pageopacity="0"
     inkscape:pageshadow="2"
     inkscape:window-width="770"
     inkscape:window-height="480"
     id="namedview76"
     showgrid="false"
     inkscape:zoom="1.84375"
     inkscape:cx="64"
     inkscape:cy="64"
     inkscape:window-x="0"
     inkscape:window-y="34"
     inkscape:window-maximized="0"
     inkscape:current-layer="g70" />
  <title
     id="title4162">
  Adwaita Icon Template
 </title>
  <defs
     id="defs42">
    <linearGradient
       id="linearGradient1007">
      <stop
         id="stop1003"
         offset="0"
         style="stop-color:#2dc0af" />
      <stop
         id="stop1005"
         offset="1"
         style="stop-color:#61a1d2" />
    </linearGradient>
    <linearGradient
       id="linearGradient6809-3">
      <stop
         id="stop6805"
         offset="0"
         style="stop-color:#f6d123" />
      <stop
         id="stop6807"
         offset="1"
         style="stop-color:#2dc0af;stop-opacity:0.13779527" />
    </linearGradient>
    <linearGradient
       id="linearGradient6826">
      <stop
         id="stop6822"
         offset="0"
         style="stop-color:#50dbb5" />
      <stop
         id="stop6824"
         offset="1"
         style="stop-color:#4a86cf" />
    </linearGradient>
    <radialGradient
       id="radialGradient439"
       cx="184"
       cy="-179.602"
       r="225"
       fx="184"
       fy="-179.602"
       gradientTransform="matrix(0.25,0,0,0.1967778,-162.99495,200.7212)"
       gradientUnits="userSpaceOnUse"
       xlink:href="#linearGradient6826" />
    <radialGradient
       id="radialGradient441"
       cx="256"
       cy="267.602"
       r="225"
       fx="256"
       fy="267.602"
       gradientTransform="matrix(0.45333333,0,0,0.35682373,-215.04828,157.89251)"
       gradientUnits="userSpaceOnUse"
       xlink:href="#linearGradient6809-3" />
    <linearGradient
       id="linearGradient443"
       x1="230"
       x2="230"
       y1="204"
       y2="172"
       gradientTransform="matrix(0.25,0,0,0.25,-162.99495,202.37942)"
       gradientUnits="userSpaceOnUse"
       xlink:href="#linearGradient1007" />
    <linearGradient
       id="linearGradient3924-803">
      <stop
         style="stop-color:#ffffff"
         id="stop3252"
         offset="0" />
      <stop
         id="stop3254"
         offset=".063"
         style="stop-color:#ffffff;stop-opacity:0.23529412" />
      <stop
         style="stop-color:#ffffff;stop-opacity:0.15686275"
         id="stop3256"
         offset=".951" />
      <stop
         style="stop-color:#ffffff;stop-opacity:0.39215687"
         id="stop3258"
         offset="1" />
    </linearGradient>
    <linearGradient
       id="linearGradient3157"
       x1="24"
       x2="24"
       y1="5"
       y2="43"
       gradientTransform="matrix(3.0540538,0,0,2.9459464,-300.90031,135.20346)"
       gradientUnits="userSpaceOnUse"
       xlink:href="#linearGradient3924-803" />
    <linearGradient
       id="linearGradient2867-449-88-871-390-598-476-591-434-148-57-177-641">
      <stop
         id="stop3236"
         offset="0"
         style="stop-color:#404040" />
      <stop
         style="stop-color:#303030"
         id="stop4001"
         offset=".25" />
      <stop
         style="stop-color:#202020"
         id="stop3999"
         offset=".5" />
      <stop
         id="stop3242"
         offset="1"
         style="stop-color:#000000" />
    </linearGradient>
    <linearGradient
       id="linearGradient3707-319-631-407-324-616">
      <stop
         id="stop3246"
         offset="0"
         style="stop-color:#000000" />
      <stop
         id="stop3248"
         offset="1"
         style="stop-color:#1c1c1c" />
    </linearGradient>
    <linearGradient
       id="linearGradient3600">
      <stop
         style="stop-color:#f4f4f4"
         id="stop3602"
         offset="0" />
      <stop
         style="stop-color:#dbdbdb"
         id="stop3604"
         offset="1" />
    </linearGradient>
    <linearGradient
       id="linearGradient3104">
      <stop
         style="stop-color:#a0a0a0"
         id="stop3106"
         offset="0" />
      <stop
         style="stop-color:#bebebe"
         id="stop3108"
         offset="1" />
    </linearGradient>
    <linearGradient
       id="linearGradient3688-166-749-2-324">
      <stop
         style="stop-color:#181818"
         id="stop3216"
         offset="0" />
      <stop
         style="stop-color:#181818;stop-opacity:0"
         id="stop3218"
         offset="1" />
    </linearGradient>
    <linearGradient
       id="linearGradient3702-501-757-6-946">
      <stop
         style="stop-color:#181818;stop-opacity:0"
         id="stop3228"
         offset="0" />
      <stop
         style="stop-color:#181818"
         id="stop3230"
         offset=".5" />
      <stop
         style="stop-color:#181818;stop-opacity:0"
         id="stop3232"
         offset="1" />
    </linearGradient>
  </defs>
  <g
     id="layer1"
     transform="translate(0,-172)">
    <g
       id="layer9">
      <g
         transform="translate(162.99495,34.62058)"
         style="enable-background:new"
         id="g70">
        <rect
           style="fill:#3d3846"
           width="112"
           height="88"
           x="-155"
           y="165.38"
           rx="8"
           ry="8.8"
           id="rect44" />
        <rect
           width="113"
           height="109"
           x="-284.1"
           y="151.41"
           rx="5"
           ry="5.129"
           style="opacity:0.3;fill:none;stroke:url(#linearGradient3157);stroke-width:0.99999994;stroke-linecap:round;stroke-linejoin:round"
           id="rect46" />
        <g
           transform="matrix(0.74074074,0,0,0.74074074,-24.08887,44.810513)"
           id="g54">
          <g
             style="fill:#ffffff"
             transform="matrix(1.2132429,0,0,1.0511679,-132.07765,179.33606)"
             id="g52">
            <path
               d="m 25.513804,-0.44535904 c -11.681016,0 -21.163418,10.94193504 -21.163418,24.42400504 0,13.482061 9.482402,24.424007 21.163418,24.424007 11.681024,0 21.163418,-10.941946 21.163418,-24.424007 0,-13.48207 -9.482394,-24.42400504 -21.163418,-24.42400504 z m 0,1.2817776 c 11.079666,0 20.048525,10.35424244 20.048525,23.14222744 0,12.787986 -8.968859,23.142229 -20.048525,23.142229 -11.079661,0 -20.0485246,-10.354243 -20.0485246,-23.142229 0,-12.787985 8.9688636,-23.14222744 20.0485246,-23.14222744 z M 18.109433,14.466904 18.096393,33.492896 34.580737,23.991188 Z"
               style="fill:#181414;opacity:0.5"
               id="path48" />
            <path
               style="fill:#ffffff"
               d="m 25.513804,0.19678321 c -11.681016,0 -21.163418,10.94193479 -21.163418,24.42400479 0,13.482061 9.482402,24.424007 21.163418,24.424007 11.681024,0 21.163418,-10.941946 21.163418,-24.424007 0,-13.48207 -9.482394,-24.42400479 -21.163418,-24.42400479 z m 0,1.28177759 c 11.079666,0 20.048525,10.3542422 20.048525,23.1422272 0,12.787986 -8.968859,23.142229 -20.048525,23.142229 -11.079661,0 -20.0485246,-10.354243 -20.0485246,-23.142229 0,-12.787985 8.9688636,-23.1422272 20.0485246,-23.1422272 z M 18.109433,15.109046 18.096393,34.135038 34.580737,24.63333 Z"
               id="path50" />
          </g>
        </g>
        <path
           style="fill:#efefef"
           d="M 8 93.119141 L 8 107.19922 C 8 108.41802 8.2232031 109.57733 8.6269531 110.63086 C 9.0307031 111.68438 9.6148906 112.63243 10.337891 113.42773 C 11.060891 114.22303 11.923109 114.86642 12.880859 115.31055 C 13.838609 115.75467 14.892 116 16 116 L 112 116 C 113.108 116 114.16139 115.75467 115.11914 115.31055 C 116.07689 114.86642 116.93911 114.22303 117.66211 113.42773 C 118.38511 112.63243 118.9693 111.68438 119.37305 110.63086 C 119.7768 109.57733 120 108.41802 120 107.19922 L 120 93.119141 L 8 93.119141 z"
           transform="translate(-162.99495,137.37942)"
           id="path56" />
        <path
           d="m -154.99495,243.37942 v 2 c 0,4.432 3.568,8 8,8 h 96 c 4.432,0 8,-3.568 8,-8 v -2 c 0,4.432 -3.568,8 -8,8 h -96 c -4.432,0 -8,-3.568 -8,-8 z"
           style="fill:#000000;fill-opacity:1;opacity:0.2"
           id="path58" />
        <g
           transform="translate(-1.0000026)"
           id="g68">
          <rect
             width="90"
             height="6.207"
             x="-144"
             y="236.84"
             rx="1.5"
             ry="1.5"
             style="fill:#e01b24"
             id="rect60" />
          <rect
             style="fill:#979797"
             width="54.439"
             height="6.207"
             x="-108.43"
             y="236.84"
             id="rect62" />
          <rect
             width="25.718"
             height="6.207"
             x="-79.71"
             y="236.84"
             style="fill:#3d3846"
             id="rect64" />
          <rect
             style="fill:#3d3846"
             width="25.718"
             height="6.207"
             x="-77.71"
             y="236.84"
             rx="1.5"
             ry="1.5"
             id="rect66" />
        </g>
      </g>
    </g>
  </g>
</svg>
